src/scalable/mimetypes/application-ram.svg

<?xml version="1.0" encoding="UTF-8" standalone="no"?>
<svg
   xmlns:dc="http://purl.org/dc/elements/1.1/"
   xmlns:cc="http://creativecommons.org/ns#"
   xmlns:rdf="http://www.w3.org/1999/02/22-rdf-syntax-ns#"
   xmlns:svg="http://www.w3.org/2000/svg"
   xmlns="http://www.w3.org/2000/svg"
   xmlns:xlink="http://www.w3.org/1999/xlink"
   xmlns:sodipodi="http://sodipodi.sourceforge.net/DTD/sodipodi-0.dtd"
   xmlns:inkscape="http://www.inkscape.org/namespaces/inkscape"
   width="48px"
   height="48px"
   viewBox="0 0 48 48"
   version="1.1"
   id="svg37"
   sodipodi:docname="application-ram.svg"
   inkscape:version="0.92.2 2405546, 2018-03-11">
  <metadata
     id="metadata41">
    <rdf:RDF>
      <cc:Work
         rdf:about="">
        <dc:format>image/svg+xml</dc:format>
        <dc:type
           rdf:resource="http://purl.org/dc/dcmitype/StillImage" />
      </cc:Work>
    </rdf:RDF>
  </metadata>
  <sodipodi:namedview
     pagecolor="#ffffff"
     bordercolor="#666666"
     borderopacity="1"
     objecttolerance="10"
     gridtolerance="10"
     guidetolerance="10"
     inkscape:pageopacity="0"
     inkscape:pageshadow="2"
     inkscape:window-width="691"
     inkscape:window-height="480"
     id="namedview39"
     showgrid="false"
     inkscape:zoom="4.9166667"
     inkscape:cx="22.246241"
     inkscape:cy="15.098035"
     inkscape:window-x="1013"
     inkscape:window-y="375"
     inkscape:window-maximized="0"
     inkscape:current-layer="svg37" />
  <!-- Generator: Sketch 41.2 (35397) - http://www.bohemiancoding.com/sketch -->
  <title
     id="title2">application-ram</title>
  <desc
     id="desc4">Created with Sketch.</desc>
  <g
     id="g829">
    <rect
       rx="2"
       ry="1.9047618"
       y="4"
       x="6"
       height="40"
       width="36"
       id="rect834"
       style="opacity:1;fill:#0288d1;fill-opacity:1;stroke:none;stroke-width:0.92582005;stroke-linecap:round;stroke-linejoin:round;stroke-miterlimit:4;stroke-dasharray:none;stroke-opacity:0.05882353;paint-order:markers stroke fill" />
    <path
       inkscape:connector-curvature="0"
       id="rect866"
       d="M 42,17.242188 A 40,40 0 0 1 23.494141,44 H 40 c 1.108,0 2,-0.849059 2,-1.904297 z"
       style="opacity:0.15;fill:url(#linearGradient877);fill-opacity:1;stroke:none;stroke-width:0.92582005;stroke-linecap:round;stroke-linejoin:round;stroke-miterlimit:4;stroke-dasharray:none;stroke-opacity:0.05882353;paint-order:markers stroke fill" />
  </g>
  <defs
     id="defs11">
    <linearGradient
       x1="90.7002767%"
       y1="6.56534831%"
       x2="35.3271484%"
       y2="64.1438802%"
       id="linearGradient-1">
      <stop
         stop-color="#93DEF2"
         offset="0%"
         id="stop6" />
      <stop
         stop-color="#5ABADF"
         offset="100%"
         id="stop8" />
    </linearGradient>
    <linearGradient
       inkscape:collect="always"
       xlink:href="#linearGradient875"
       id="linearGradient877"
       x1="32.74707"
       y1="44"
       x2="32.74707"
       y2="17.242188"
       gradientUnits="userSpaceOnUse" />
    <linearGradient
       inkscape:collect="always"
       id="linearGradient875">
      <stop
         style="stop-color:#000000;stop-opacity:1;"
         offset="0"
         id="stop871" />
      <stop
         style="stop-color:#000000;stop-opacity:0;"
         offset="1"
         id="stop873" />
    </linearGradient>
  </defs>
  <path
     style="fill:#ffffff;fill-rule:evenodd;stroke:none;stroke-width:1"
     d="M 15.994141 18 C 15.445689 18 15 18.448303 15 19.001953 L 15 28.998047 C 15 29.544759 15.445502 30 15.994141 30 L 29 30 L 32 30 L 32.005859 30 C 32.554311 30 33 29.551697 33 28.998047 L 33 19.001953 C 33 18.455241 32.554498 18 32.005859 18 L 32 18 L 29 18 L 15.994141 18 z M 15.998047 19 L 16 19 C 16.000488 19 17.562202 18.99993 18 19 L 18 20 L 16 20 L 16 22 L 18 22 L 18 23 L 16 23 C 15.999957 22.519996 16.000054 22.420026 16 22 C 15.999838 20.73992 15.998325 19.000062 15.998047 19 z M 19 19 C 22.047958 19.000487 25.953567 19.001504 29 19.001953 L 29 29 C 25.952042 28.999513 22.046433 28.998496 19 28.998047 L 19 19 z M 30 19.001953 C 30.437432 19.002014 32 19.001965 32 19.001953 C 32 19.001953 31.999995 19.820645 32 20 L 30 20 L 30 19.001953 z M 22 22 L 22 26 L 26 24 L 22 22 z M 30 22 L 32 22 C 32.000017 22.419862 31.999975 22.520078 32 23 L 30 23 L 30 22 z M 16 25 L 18 25 L 18 26 L 16 26 C 15.999983 25.580138 16.000025 25.479922 16 25 z M 30 25 L 32 25 C 32.000114 25.444438 31.999867 25.619986 32 26 C 32.0004 27.140044 32.001675 28.999938 32.001953 29 L 32 29 C 31.999512 29 30.437798 29.00007 30 29 L 30 28 L 32 28 L 32 26 L 30 26 L 30 25 z M 16 28 L 18 28 L 18 28.998047 C 17.562568 28.997986 16 28.998035 16 28.998047 C 16 28.998047 16.000005 28.179355 16 28 z "
     id="Rectangle-233" />
</svg>

<svg xmlns="http://www.w3.org/2000/svg" xmlns:xlink="http://www.w3.org/1999/xlink" width="48" height="48"><g paint-order="markers stroke fill"><rect rx="2" ry="1.905" y="4" x="6" height="40" width="36" fill="#0288d1"/><path d="M42 17.242A40 40 0 0 1 23.494 44H40c1.108 0 2-.85 2-1.904z" opacity=".15" fill="url(#a)"/></g><defs><linearGradient xlink:href="#b" id="a" x1="32.747" y1="44" x2="32.747" y2="17.242" gradientUnits="userSpaceOnUse"/><linearGradient id="b"><stop offset="0"/><stop offset="1" stop-opacity="0"/></linearGradient></defs><path d="M15.994 18A.998.998 0 0 0 15 19.002v9.996c0 .547.446 1.002.994 1.002h16.012A.998.998 0 0 0 33 28.998v-9.996c0-.547-.446-1.002-.994-1.002H15.994zm.004 1H18v1h-2v2h2v1h-2v-1l-.002-3zM19 19l10 .002V29l-10-.002V19zm11 .002h2V20h-2v-.998zM22 22v4l4-2-4-2zm8 0h2v1h-2v-1zm-14 3h2v1h-2v-1zm14 0h2v1l.002 3H32h-2v-1h2v-2h-2v-1zm-14 3h2v.998h-2V28z" fill="#fff" fill-rule="evenodd"/></svg>
